X:91
T:Rond de St.Vincent
C:E. Grandjean
M:4/4
L:1/8
K:C
ABc2 A2GA|Bdc2 ~B2AE|ABc2 A2GA|Bdc2 ~B2A2:|\
|:ABcc BBAB|ccBB ABcA|GABd cBA2:|
